X:49
T: Fan luosuo wugeng
N: C1547
O: China, Heilongjiang, Qiqihaer
S: III, 64]
R: Xiaodiao. Nann qing]
M: 4/4
L: 1/16
K: D
B2B2F2A2B4B4 | A2A2F2A2B8
A2B2d4B2A2A2F2 | A2F2E2D2F2A2A2E2 | F12z4
z4B4B2F2A4 | d6B2A2F2A4
z4B4A2F2B2A2 | d6B2A2F2A4
z4F4A4B2A2 | d6B2A2F2A4
z4B4A4B2A2 | d6B2A2F2A4
z4B4D4E4 | A6E2F2E2F4
z4B4D4E4 | A6E2F2E2F4
z2f4e2d4d2B2 | z2f4e2d4d4
B3AB2B2d4d4 | B4B4D4A4 | F8E2B,2D4
z4F4E4D4 | B4B2d2A2B2e2c2 | B12z4

